X:1
T:Title
%%score { ( 1 4 5 ) | ( 2 3 ) }
L:1/8
M:4/4
K:Bb
V:1 treble nm="Grand Piano"
V:4 treble 
V:5 treble 
V:2 bass 
V:3 bass 
V:1
 z4 z2[Q:1/4=100] [DF]2 | [FB]2 c2 d2 [FB]2 | [EG]2 [=Ec]4 [EB]2 | A3 G A2 G2 |[M:3/4] [DF]6 | %5
[M:1/4] [DF]2 |[M:4/4] [FB]2 c2 d2 [FB]2 | [EG]2 [=Ec]4 [EB]2 | A2 B2 d3 c |[M:3/4] [DB]6 | %10
[M:1/4] [DB]d |[M:4/4] f3 e d2 [FB]2 | [Ge]4 z4 | [DF]2 [DB]2 [DB]2 [Fd]2 | d2 c2 c2 de | %15
 f3 e d2 [FB]2 | [Ge]4 z4 | F2 B2 d3 c |[M:3/4] [Ec]2 [DB]4 |] %19
V:2
 z4 z2 [B,,B,]2 | [D,B,]2[K:treble] [F,A,F]2 [B,F]2[K:bass] [D,B,]2 | [E,B,]2 [C,B,]4 [C,G,]2 | %3
 [F,F]3 [F,E] [F,F]2 [F,A,E]2 |[M:3/4] [B,,B,]6 |[M:1/4] [B,,B,]2 | %6
[M:4/4] [D,B,]2[K:treble] [F,A,F]2 [B,F]2[K:bass] [D,B,]2 | [E,B,]2 [C,B,]4 [C,G,]2 | %8
 [F,F]2 [F,D]2 [F,B,F]3 [F,E] |[M:3/4] [B,,F,]6 |[M:1/4] z[K:treble] F | %11
[M:4/4] [B,DF]3 [B,CF] [B,F]2[K:bass] [D,B,]2 | [E,B,]2 z E [E,B,E]2 [E,G,E]2 | %13
 [B,,B,]2 [B,,F,]2 [B,,F,]2 [B,,B,]2 | [F,B,F]2 [F,A,F]2 [F,A,F]2 [F,F]-[F,CF] | %15
 [B,DF]3 [B,CF] [B,F]2[K:bass] [D,B,]2 | [E,B,]2 z E [E,B,E]2 [E,G,E]2 | %17
 [F,B,D]2 [F,B,D]2 [F,B,F]3 [F,A,E] |[M:3/4] [B,,B,]2 [B,,B,]4 |] %19
V:3
 x8 | x2[K:treble] x4[K:bass] x2 | x8 | x8 |[M:3/4] x6 |[M:1/4] x2 | %6
[M:4/4] x2[K:treble] x4[K:bass] x2 | x8 | x8 |[M:3/4] x6 |[M:1/4] B,2[K:treble] | %11
[M:4/4] x6[K:bass] x2 | z2 E,2 z4 | x8 | z4 z2 .B,2 | x6[K:bass] x2 | z2 E,2 z4 | x8 |[M:3/4] x6 |] %19
V:4
 x8 | x8 | x8 | x8 |[M:3/4] x6 |[M:1/4] x2 |[M:4/4] x8 | x8 | x8 |[M:3/4] x6 |[M:1/4] x2 | %11
[M:4/4] x8 | z2 z G G2 B2 | x8 | x8 | x8 | z2 z G G2 B2 | x8 |[M:3/4] x6 |] %19
V:5
 x8 | x8 | x8 | x8 |[M:3/4] x6 |[M:1/4] x2 |[M:4/4] x8 | x8 | x8 |[M:3/4] x6 |[M:1/4] x2 | %11
[M:4/4] x8 | z2 B,2 z4 | x8 | x8 | x8 | z2 B,2 z4 | x8 |[M:3/4] x6 |] %19

